res/skins/LateNight/palemoon/buttons/btn__beat_curpos_large.svg

<svg width="24" height="24" version="1.1" xmlns="http://www.w3.org/2000/svg">
  <g fill="none" stroke="#000" stroke-linecap="round" stroke-linejoin="round" stroke-width="1.6">
    <g transform="translate(1,-10)">
      <path d="m8 31h2v-18h-2z"/>
      <path d="m13 31h2v-18h-2z"/>
      <path d="m18 31h2v-18h-2z"/>
    </g>
    <path d="m4 17h2v-14h-2z"/>
    <path d="m4 21h2v-2h-2z"/>
  </g>
  <g transform="translate(1,-10)" fill="#3f3d3d">
    <path d="m8 31h2v-18h-2z"/>
    <path d="m13 31h2v-18h-2z"/>
    <path d="m18 31h2v-18h-2z"/>
  </g>
  <g fill="#928476">
    <path d="m4 17h2v-14h-2z"/>
    <path d="m4 21h2v-2h-2z"/>
  </g>
</svg>

<?xml version="1.0" encoding="UTF-8" standalone="no"?>
<svg
   xmlns:dc="http://purl.org/dc/elements/1.1/"
   xmlns:cc="http://creativecommons.org/ns#"
   xmlns:rdf="http://www.w3.org/1999/02/22-rdf-syntax-ns#"
   xmlns:svg="http://www.w3.org/2000/svg"
   xmlns="http://www.w3.org/2000/svg"
   width="24"
   height="24"
   version="1.1"
   id="svg16">
  <metadata
     id="metadata22">
    <rdf:RDF>
      <cc:Work
         rdf:about="">
        <dc:format>image/svg+xml</dc:format>
        <dc:type
           rdf:resource="http://purl.org/dc/dcmitype/StillImage" />
        <dc:title></dc:title>
      </cc:Work>
    </rdf:RDF>
  </metadata>
  <defs
     id="defs20" />
  <g
     style="fill:none;stroke:#000000;stroke-opacity:1;stroke-width:1.6;stroke-miterlimit:4;stroke-dasharray:none;stroke-linejoin:round;stroke-linecap:round"
     id="g862">
    <g
       transform="translate(1,-10)"
       id="g8-3"
       style="fill:none;stroke:#000000;stroke-opacity:1;stroke-width:1.6;stroke-miterlimit:4;stroke-dasharray:none;stroke-linejoin:round;stroke-linecap:round">
      <path
         style="fill:none;stroke:#000000;stroke-opacity:1;stroke-width:1.6;stroke-miterlimit:4;stroke-dasharray:none;stroke-linejoin:round;stroke-linecap:round"
         d="m 8,31 h 2 V 13 H 8 Z"
         id="path2-6" />
      <path
         style="fill:none;stroke:#000000;stroke-opacity:1;stroke-width:1.6;stroke-miterlimit:4;stroke-dasharray:none;stroke-linejoin:round;stroke-linecap:round"
         d="m 13,31 h 2 V 13 h -2 z"
         id="path4-7" />
      <path
         style="fill:none;stroke:#000000;stroke-opacity:1;stroke-width:1.6;stroke-miterlimit:4;stroke-dasharray:none;stroke-linejoin:round;stroke-linecap:round"
         d="m 18,31 h 2 V 13 h -2 z"
         id="path6-5" />
    </g>
    <g
       style="fill:none;fill-opacity:1;stroke:#000000;stroke-opacity:1;stroke-width:1.6;stroke-miterlimit:4;stroke-dasharray:none;stroke-linejoin:round;stroke-linecap:round"
       id="g843-3">
      <path
         style="fill:none;fill-opacity:1;stroke:#000000;stroke-opacity:1;stroke-width:1.6;stroke-miterlimit:4;stroke-dasharray:none;stroke-linejoin:round;stroke-linecap:round"
         id="path10-5"
         d="M 4,17 H 6 V 3 H 4 Z" />
      <path
         style="fill:none;fill-opacity:1;stroke:#000000;stroke-opacity:1;stroke-width:1.6;stroke-miterlimit:4;stroke-dasharray:none;stroke-linejoin:round;stroke-linecap:round"
         id="path12-6"
         d="M 4,21 H 6 V 19 H 4 Z" />
    </g>
  </g>
  <g
     style="fill:#3f3d3d"
     id="g8"
     transform="translate(1,-10)">
    <path
       id="path2"
       d="m 8,31 h 2 V 13 H 8 Z" />
    <path
       id="path4"
       d="m 13,31 h 2 V 13 h -2 z" />
    <path
       id="path6"
       d="m 18,31 h 2 V 13 h -2 z" />
  </g>
  <g
     id="g843"
     style="fill:#928476;fill-opacity:1">
    <path
       d="M 4,17 H 6 V 3 H 4 Z"
       id="path10"
       style="fill:#928476;fill-opacity:1" />
    <path
       d="M 4,21 H 6 V 19 H 4 Z"
       id="path12"
       style="fill:#928476;fill-opacity:1" />
  </g>
</svg>
